X: 1
B: Cole's 1000 Fiddle Tunes
T:RANDY WIFE OF GREENLAW -- REEL.
C:SCOTCH.
R:reel
B:Coles 43.7
Z:John Walsh <walsh:mat:h.ubc.ca>
M:C|
L:1/8
Z: Contributed 20000514053608 by John Walsh walsh:mat:h.ubc.ca
K:D
uc|vd2 ("4"AG) F2 (Dc)|d2 (fd) "4"eBBc|d2 ("4"AG) F2 (DF)|GBAG FDDc|
d2 ("4"AG) F2 (Dc)|d2 (fd) "4"eBBc|d2 ("4"AG) F2 (DF)|GBAG FDD:|
uc|vd2 (df) abaf|gefd "4"eBBc|d2 (df) abaf|geaf (3ddd d z|
d2 (df) abaf|gefd "4"eBBc|df(c"4"e) Bd(AF)|GB(AF) (3DDD D|]

